app/assets/images/Contenido/Odin/Vehículos.svg

<svg fill="none" height="130" viewBox="0 0 117 130" width="117" xmlns="http://www.w3.org/2000/svg"><circle cx="57.8345" cy="45.4964" r="44.3397" stroke="#000" stroke-width="2.31337"/><g fill="#000"><path d="m20.6145 110.655h2.6405l-6.195 14.218h-2.5999l-6.21535-14.218h2.86395l4.7326 10.968zm13.2803 8.856c0 .203-.0203.507-.0406.751h-8.5106c.3047 1.585 1.6249 2.6 3.5139 2.6 1.2187 0 2.1734-.386 2.9452-1.178l1.3609 1.564c-.975 1.158-2.4984 1.767-4.367 1.767-3.6358 0-5.9919-2.336-5.9919-5.565 0-3.23 2.3764-5.545 5.606-5.545 3.1686 0 5.4841 2.214 5.4841 5.606zm-5.4841-3.575c-1.6453 0-2.8437 1.056-3.0874 2.64h6.1544c-.2031-1.564-1.4015-2.64-3.067-2.64zm14.0773-2.031c2.5999 0 4.5295 1.482 4.5295 4.753v6.215h-2.5389v-5.89c0-1.93-.9547-2.864-2.5796-2.864-1.8078 0-3.0264 1.096-3.0264 3.27v5.484h-2.539v-15.071h2.539v5.484c.8327-.894 2.1124-1.381 3.6154-1.381zm7.3238-1.361 2.742-2.783h2.9858l-3.5342 2.783zm.4265 12.329v-10.846h2.539v10.846zm10.8477.142c-3.4327 0-5.8701-2.315-5.8701-5.565s2.4374-5.545 5.8701-5.545c2.1124 0 3.7982.873 4.631 2.518l-1.9499 1.138c-.65-1.036-1.6249-1.503-2.7014-1.503-1.8687 0-3.2905 1.3-3.2905 3.392 0 2.112 1.4218 3.392 3.2905 3.392 1.0765 0 2.0514-.467 2.7014-1.503l1.9499 1.137c-.8328 1.625-2.5186 2.539-4.631 2.539zm14.7879-10.988h2.539v10.846h-2.4171v-1.381c-.8125.995-2.0921 1.523-3.4936 1.523-2.7827 0-4.6717-1.523-4.6717-4.793v-6.195h2.539v5.849c0 1.971.9343 2.905 2.5389 2.905 1.7671 0 2.9655-1.097 2.9655-3.27zm5.8632 10.846v-15.071h2.539v15.071zm10.7461.142c-3.3311 0-5.7685-2.315-5.7685-5.565s2.4374-5.545 5.7685-5.545c3.3718 0 5.7888 2.295 5.7888 5.545s-2.417 5.565-5.7888 5.565zm0-2.173c1.8484 0 3.2296-1.32 3.2296-3.392s-1.3812-3.392-3.2296-3.392c-1.828 0-3.2092 1.32-3.2092 3.392s1.3812 3.392 3.2092 3.392zm11.5678 2.173c-1.807 0-3.615-.528-4.5901-1.219l.9751-1.929c.954.629 2.417 1.076 3.778 1.076 1.604 0 2.275-.447 2.275-1.198 0-2.072-6.7031-.122-6.7031-4.448 0-2.052 1.8481-3.392 4.7731-3.392 1.442 0 3.087.345 4.062.934l-.975 1.93c-1.035-.61-2.071-.813-3.107-.813-1.544 0-2.275.508-2.275 1.219 0 2.194 6.703.244 6.703 4.489 0 2.031-1.869 3.351-4.916 3.351z"/><path d="m85.3305 41.4434-3.7996-.6323c-.4847-.0801-.9453-.2675-1.3484-.5483-.403-.2809-.7383-.6482-.9813-1.0751l-5.2475-9.1818c-.8702-1.5191-2.1257-2.7818-3.6397-3.6607s-3.2331-1.3429-4.9838-1.3452h-18.4453c-1.7505.0022-3.4695.4661-4.9836 1.3447-1.514.8787-2.7695 2.1412-3.6398 3.6601l-5.3524 9.3661c-.2226.3874-.521.7259-.8772.9955-.3563.2697-.7632.4648-1.1964.5738l-3.6573.9138c-.9106.2279-1.7477.6851-2.4318 1.3279-.684.6429-1.1921 1.4501-1.476 2.3448-.0122.0287-.0133.0629-.0232.0927-.1598.5144-.2431 1.0495-.2472 1.5881v7.5893c.0018 1.4629.5837 2.8654 1.6181 3.8998 1.0344 1.0345 2.4369 1.6164 3.8998 1.6181h4.0667c.6242 1.3204 1.6106 2.4364 2.8444 3.2179 1.2339.7814 2.6643 1.1963 4.1248 1.1963s2.8909-.4149 4.1247-1.1963c1.2339-.7815 2.2203-1.8975 2.8444-3.2179h23.5837c.6241 1.3204 1.6105 2.4364 2.8444 3.2179 1.2338.7814 2.6642 1.1963 4.1247 1.1963s2.8909-.4149 4.1248-1.1963c1.2338-.7815 2.2202-1.8975 2.8444-3.2179h4.0667c1.4629-.0017 2.8654-.5836 3.8998-1.6181 1.0344-1.0344 1.6163-2.4369 1.6181-3.8998v-3.5568c.0059-2.3526-.826-4.6304-2.3467-6.4255-1.5206-1.7951-3.6307-2.9901-5.9523-3.3711zm4.8713 5.6283c.4365.6804.7631 1.4252.9678 2.2072h-.8509c-.8755-.0002-1.7155-.3461-2.3374-.9623-.3495-.3523-.617-.7774-.7835-1.2449zm-64.9836 0h1.886l-.5518 2.2072h-1.3452v-2.0714c0-.0464.0099-.0905.011-.1358zm14.3356 15.4502c-1.0914 0-2.1582-.3236-3.0656-.9299s-1.6147-1.4681-2.0323-2.4764c-.4177-1.0083-.5269-2.1177-.314-3.1881s.7384-2.0536 1.5101-2.8253 1.7549-1.2972 2.8253-1.5101 2.1798-.1036 3.1881.314 1.8701 1.1249 2.4764 2.0323.9299 1.9742.9299 3.0656c-.0017 1.4629-.5836 2.8654-1.6181 3.8998-1.0344 1.0345-2.4369 1.6164-3.8998 1.6181zm37.5219 0c-1.0913 0-2.1582-.3236-3.0656-.9299s-1.6146-1.4681-2.0323-2.4764c-.4176-1.0083-.5269-2.1177-.314-3.1881s.7384-2.0536 1.5101-2.8253 1.7549-1.2972 2.8253-1.5101 2.1799-.1036 3.1881.314c1.0083.4176 1.8701 1.1249 2.4764 2.0323s.9299 1.9742.9299 3.0656c-.0017 1.4629-.5836 2.8654-1.6181 3.8998-1.0344 1.0345-2.4369 1.6164-3.8998 1.6181zm11.0359-4.4143h-3.3991c.1678-1.1002.0959-2.2237-.2108-3.2936-.3067-1.0698-.841-2.0607-1.5662-2.9049s-1.6243-1.5218-2.6357-1.9862c-1.0114-.4645-2.1112-.705-3.2241-.705s-2.2127.2405-3.2241.705c-1.0114.4644-1.9104 1.142-2.6357 1.9862-.7252.8442-1.2594 1.8351-1.5661 2.9049-.3068 1.0699-.3787 2.1934-.2109 3.2936h-22.2483c.1678-1.1002.0959-2.2237-.2109-3.2936-.3067-1.0698-.8409-2.0607-1.5661-2.9049-.7253-.8442-1.6243-1.5218-2.6357-1.9862-1.0114-.4645-2.1112-.705-3.2241-.705s-2.2127.2405-3.2241.705c-1.0114.4644-1.9105 1.142-2.6357 1.9862s-1.2595 1.8351-1.5662 2.9049c-.3067 1.0699-.3786 2.1934-.2108 3.2936h-3.3991c-.878 0-1.7201-.3488-2.341-.9697s-.9697-1.463-.9697-2.3411v-3.3107h2.2071c.2461 0 .485-.0823.679-.2336.1939-.1514.3317-.3632.3915-.6019l1.1036-4.4143c.0408-.1627.0439-.3326.0092-.4967-.0348-.1641-.1065-.3182-.2097-.4504-.1032-.1323-.2352-.2392-.3859-.3128-.1508-.0736-.3163-.1119-.4841-.1119h-2.3296c.4207-.4223.9482-.7225 1.5262-.8685l3.6584-.9148c.7214-.1822 1.3988-.5076 1.9918-.9569.5931-.4494 1.0897-1.0134 1.4602-1.6586l5.3524-9.3662c.6771-1.1813 1.6537-2.1631 2.8314-2.8465 1.1776-.6833 2.5146-1.0441 3.8762-1.0458h18.4453c1.3616.0017 2.6986.3625 3.8763 1.0458 1.1776.6834 2.1543 1.6652 2.8313 2.8465l5.2465 9.1819c.4047.7121.9634 1.3247 1.6353 1.7931.672.4683 1.4401.7806 2.2482.9139l3.7997.6335c1.111.1838 2.1686.6079 3.0988 1.2426h-2.1619c-.2927 0-.5734.1163-.7804.3233-.2069.2069-.3232.4876-.3232.7803-.0007.7249.1415 1.4427.4186 2.1125.277.6698.6834 1.2784 1.196 1.7909.5125.5125 1.1211.919 1.7909 1.196.6698.2771 1.3876.4193 2.1124.4186h1.1036v3.3107c0 .8781-.3488 1.7202-.9697 2.3411s-1.463.9697-2.341.9697z"/><path d="m73.1668 35.4675c-.1507-.251-.395-.4318-.679-.5027-.2841-.0709-.5847-.026-.8356.1247-.251.1508-.4318.395-.5027.6791-.0709.284-.0261.5846.1247.8356l1.6454 2.7424h-13.5012v-8.8287h6.329c.5716.0016 1.1331.1504 1.6304.432.4974.2816.9138.6866 1.2091 1.176l.6997 1.1675c.1508.251.395.4319.6791.5027.284.0709.5846.0261.8356-.1247.251-.1507.4318-.395.5027-.679.0709-.2841.026-.5847-.1247-.8356l-.7008-1.1676c-.4921-.8152-1.186-1.4899-2.0146-1.9591-.8287-.4691-1.7642-.7168-2.7165-.7193h-7.4326c-.2927 0-.5734.1162-.7804.3232-.2069.207-.3232.4877-.3232.7803v11.0359c0 .2927.1163.5734.3232.7804.207.2069.4877.3232.7804.3232h16.5538c.1953 0 .3871-.0519.5558-.1504.1687-.0984.3083-.2398.4045-.4098s.1455-.3625.1429-.5579c-.0025-.1953-.0569-.3864-.1575-.5538z"/><path d="m53.9003 28.3108h-7.4326c-.9523.0025-1.8878.2502-2.7165.7193-.8286.4692-1.5225 1.1439-2.0146 1.9591l-5.3358 8.8927c-.1006.1674-.155.3585-.1575.5538-.0026.1954.0467.3879.1429.5579s.2357.3114.4045.4098c.1687.0985.3605.1504.5558.1504h16.5538c.2927 0 .5734-.1163.7804-.3232.2069-.207.3232-.4877.3232-.7804v-11.0359c0-.2926-.1163-.5733-.3232-.7803-.207-.207-.4877-.3232-.7804-.3232zm-1.1036 11.0358h-13.5012l4.3327-7.2207c.2953-.4894.7117-.8944 1.2091-1.176.4973-.2816 1.0588-.4304 1.6304-.432h6.329z"/><path d="m60.5219 42.6574h-2.2071c-.2927 0-.5734.1163-.7804.3232-.2069.207-.3232.4877-.3232.7804s.1163.5734.3232.7803c.207.207.4877.3233.7804.3233h2.2071c.2927 0 .5734-.1163.7804-.3233.207-.2069.3232-.4876.3232-.7803s-.1162-.5734-.3232-.7804c-.207-.2069-.4877-.3232-.7804-.3232z"/><path d="m39.5537 42.6574h-2.2072c-.2927 0-.5734.1163-.7803.3232-.207.207-.3233.4877-.3233.7804s.1163.5734.3233.7803c.2069.207.4876.3233.7803.3233h2.2072c.2927 0 .5734-.1163.7803-.3233.207-.2069.3233-.4876.3233-.7803s-.1163-.5734-.3233-.7804c-.2069-.2069-.4876-.3232-.7803-.3232z"/><path d="m77.0757 53.6932c-.6549 0-1.295.1942-1.8394.5579-.5445.3638-.9688.8809-1.2194 1.4859-.2506.6049-.3161 1.2706-.1884 1.9128.1278.6423.4431 1.2322.9061 1.6952s1.0529.7783 1.6952.9061c.6422.1277 1.3079.0622 1.9128-.1884.605-.2506 1.1221-.675 1.4858-1.2194.3638-.5445.558-1.1846.558-1.8394 0-.878-.3488-1.7201-.9697-2.341s-1.463-.9697-2.341-.9697zm0 4.4143c-.2183 0-.4317-.0647-.6132-.186-.1815-.1212-.3229-.2936-.4064-.4952-.0836-.2017-.1054-.4236-.0628-.6377.0426-.214.1477-.4107.302-.565.1543-.1544.351-.2595.5651-.302.214-.0426.4359-.0208.6376.0628.2016.0835.374.2249.4953.4064.1212.1815.1859.3949.1859.6131 0 .2927-.1162.5734-.3232.7804s-.4877.3232-.7803.3232z"/><path d="m39.5537 53.6932c-.6548 0-1.2949.1942-1.8394.5579-.5444.3638-.9688.8809-1.2194 1.4859-.2505.6049-.3161 1.2706-.1884 1.9128.1278.6423.4431 1.2322.9061 1.6952s1.053.7783 1.6952.9061c.6422.1277 1.3079.0622 1.9129-.1884.6049-.2506 1.122-.675 1.4858-1.2194.3638-.5445.5579-1.1846.5579-1.8394 0-.878-.3488-1.7201-.9697-2.341-.6208-.6209-1.463-.9697-2.341-.9697zm0 4.4143c-.2183 0-.4317-.0647-.6131-.186-.1815-.1212-.323-.2936-.4065-.4952-.0835-.2017-.1054-.4236-.0628-.6377.0426-.214.1477-.4107.302-.565.1544-.1544.351-.2595.5651-.302.2141-.0426.4359-.0208.6376.0628.2017.0835.374.2249.4953.4064.1212.1815.186.3949.186.6131 0 .2927-.1163.5734-.3233.7804-.2069.207-.4876.3232-.7803.3232z"/></g></svg>

<svg width="117" height="130" viewBox="0 0 117 130" fill="none" xmlns="http://www.w3.org/2000/svg">
<circle cx="57.8345" cy="45.4964" r="44.3397" stroke="black" stroke-width="2.31337"/>
<path d="M20.6145 110.655H23.255L17.06 124.873H14.4601L8.24475 110.655H11.1087L15.8413 121.623L20.6145 110.655ZM33.8948 119.511C33.8948 119.714 33.8745 120.018 33.8542 120.262H25.3436C25.6483 121.847 26.9685 122.862 28.8575 122.862C30.0762 122.862 31.0309 122.476 31.8027 121.684L33.1636 123.248C32.1886 124.406 30.6652 125.015 28.7966 125.015C25.1608 125.015 22.8047 122.679 22.8047 119.45C22.8047 116.22 25.1811 113.905 28.4107 113.905C31.5793 113.905 33.8948 116.119 33.8948 119.511ZM28.4107 115.936C26.7654 115.936 25.567 116.992 25.3233 118.576H31.4777C31.2746 117.012 30.0762 115.936 28.4107 115.936ZM42.488 113.905C45.0879 113.905 47.0175 115.387 47.0175 118.658V124.873H44.4786V118.983C44.4786 117.053 43.5239 116.119 41.899 116.119C40.0912 116.119 38.8726 117.215 38.8726 119.389V124.873H36.3336V109.802H38.8726V115.286C39.7053 114.392 40.985 113.905 42.488 113.905ZM49.8118 112.544L52.5538 109.761H55.5396L52.0054 112.544H49.8118ZM50.2383 124.873V114.027H52.7773V124.873H50.2383ZM61.086 125.015C57.6533 125.015 55.2159 122.7 55.2159 119.45C55.2159 116.2 57.6533 113.905 61.086 113.905C63.1984 113.905 64.8842 114.778 65.717 116.423L63.7671 117.561C63.1171 116.525 62.1422 116.058 61.0657 116.058C59.197 116.058 57.7752 117.358 57.7752 119.45C57.7752 121.562 59.197 122.842 61.0657 122.842C62.1422 122.842 63.1171 122.375 63.7671 121.339L65.717 122.476C64.8842 124.101 63.1984 125.015 61.086 125.015ZM75.8739 114.027H78.4129V124.873H75.9958V123.492C75.1833 124.487 73.9037 125.015 72.5022 125.015C69.7195 125.015 67.8305 123.492 67.8305 120.222V114.027H70.3695V119.876C70.3695 121.847 71.3038 122.781 72.9084 122.781C74.6755 122.781 75.8739 121.684 75.8739 119.511V114.027ZM81.7371 124.873V109.802H84.2761V124.873H81.7371ZM92.4832 125.015C89.1521 125.015 86.7147 122.7 86.7147 119.45C86.7147 116.2 89.1521 113.905 92.4832 113.905C95.855 113.905 98.272 116.2 98.272 119.45C98.272 122.7 95.855 125.015 92.4832 125.015ZM92.4832 122.842C94.3316 122.842 95.7128 121.522 95.7128 119.45C95.7128 117.378 94.3316 116.058 92.4832 116.058C90.6552 116.058 89.274 117.378 89.274 119.45C89.274 121.522 90.6552 122.842 92.4832 122.842ZM104.051 125.015C102.244 125.015 100.436 124.487 99.4609 123.796L100.436 121.867C101.39 122.496 102.853 122.943 104.214 122.943C105.818 122.943 106.489 122.496 106.489 121.745C106.489 119.673 99.7859 121.623 99.7859 117.297C99.7859 115.245 101.634 113.905 104.559 113.905C106.001 113.905 107.646 114.25 108.621 114.839L107.646 116.769C106.611 116.159 105.575 115.956 104.539 115.956C102.995 115.956 102.264 116.464 102.264 117.175C102.264 119.369 108.967 117.419 108.967 121.664C108.967 123.695 107.098 125.015 104.051 125.015Z" fill="black"/>
<path d="M85.3305 41.4434L81.5309 40.8111C81.0462 40.731 80.5856 40.5436 80.1825 40.2628C79.7795 39.9819 79.4442 39.6146 79.2012 39.1877L73.9537 30.0059C73.0835 28.4868 71.828 27.2241 70.314 26.3452C68.8 25.4663 67.0809 25.0023 65.3302 25H46.8849C45.1344 25.0022 43.4154 25.4661 41.9013 26.3447C40.3873 27.2234 39.1318 28.4859 38.2615 30.0048L32.9091 39.3709C32.6865 39.7583 32.3881 40.0968 32.0319 40.3664C31.6756 40.6361 31.2687 40.8312 30.8355 40.9402L27.1782 41.854C26.2676 42.0819 25.4305 42.5391 24.7464 43.1819C24.0624 43.8248 23.5543 44.632 23.2704 45.5267C23.2582 45.5554 23.2571 45.5896 23.2472 45.6194C23.0874 46.1338 23.0041 46.6689 23 47.2075V54.7968C23.0018 56.2597 23.5837 57.6622 24.6181 58.6966C25.6525 59.7311 27.055 60.313 28.5179 60.3147H32.5846C33.2088 61.6351 34.1952 62.7511 35.429 63.5326C36.6629 64.314 38.0933 64.7289 39.5538 64.7289C41.0143 64.7289 42.4447 64.314 43.6785 63.5326C44.9124 62.7511 45.8988 61.6351 46.5229 60.3147H70.1066C70.7307 61.6351 71.7171 62.7511 72.951 63.5326C74.1848 64.314 75.6152 64.7289 77.0757 64.7289C78.5362 64.7289 79.9666 64.314 81.2005 63.5326C82.4343 62.7511 83.4207 61.6351 84.0449 60.3147H88.1116C89.5745 60.313 90.977 59.7311 92.0114 58.6966C93.0458 57.6622 93.6277 56.2597 93.6295 54.7968V51.24C93.6354 48.8874 92.8035 46.6096 91.2828 44.8145C89.7622 43.0194 87.6521 41.8244 85.3305 41.4434ZM90.2018 47.0717C90.6383 47.7521 90.9649 48.4969 91.1696 49.2789H90.3187C89.4432 49.2787 88.6032 48.9328 87.9813 48.3166C87.6318 47.9643 87.3643 47.5392 87.1978 47.0717H90.2018ZM25.2182 47.0717H27.1042L26.5524 49.2789H25.2072V47.2075C25.2072 47.1611 25.2171 47.117 25.2182 47.0717ZM39.5538 62.5219C38.4624 62.5219 37.3956 62.1983 36.4882 61.592C35.5808 60.9857 34.8735 60.1239 34.4559 59.1156C34.0382 58.1073 33.929 56.9979 34.1419 55.9275C34.3548 54.8571 34.8803 53.8739 35.652 53.1022C36.4237 52.3305 37.4069 51.805 38.4773 51.5921C39.5477 51.3792 40.6571 51.4885 41.6654 51.9061C42.6737 52.3237 43.5355 53.031 44.1418 53.9384C44.7481 54.8458 45.0717 55.9126 45.0717 57.004C45.07 58.4669 44.4881 59.8694 43.4536 60.9038C42.4192 61.9383 41.0167 62.5202 39.5538 62.5219ZM77.0757 62.5219C75.9844 62.5219 74.9175 62.1983 74.0101 61.592C73.1027 60.9857 72.3955 60.1239 71.9778 59.1156C71.5602 58.1073 71.4509 56.9979 71.6638 55.9275C71.8767 54.8571 72.4022 53.8739 73.1739 53.1022C73.9456 52.3305 74.9288 51.805 75.9992 51.5921C77.0696 51.3792 78.1791 51.4885 79.1873 51.9061C80.1956 52.3237 81.0574 53.031 81.6637 53.9384C82.27 54.8458 82.5936 55.9126 82.5936 57.004C82.5919 58.4669 82.01 59.8694 80.9755 60.9038C79.9411 61.9383 78.5386 62.5202 77.0757 62.5219ZM88.1116 58.1076H84.7125C84.8803 57.0074 84.8084 55.8839 84.5017 54.814C84.195 53.7442 83.6607 52.7533 82.9355 51.9091C82.2103 51.0649 81.3112 50.3873 80.2998 49.9229C79.2884 49.4584 78.1886 49.2179 77.0757 49.2179C75.9628 49.2179 74.863 49.4584 73.8516 49.9229C72.8402 50.3873 71.9412 51.0649 71.2159 51.9091C70.4907 52.7533 69.9565 53.7442 69.6498 54.814C69.343 55.8839 69.2711 57.0074 69.4389 58.1076H47.1906C47.3584 57.0074 47.2865 55.8839 46.9797 54.814C46.673 53.7442 46.1388 52.7533 45.4136 51.9091C44.6883 51.0649 43.7893 50.3873 42.7779 49.9229C41.7665 49.4584 40.6667 49.2179 39.5538 49.2179C38.4409 49.2179 37.3411 49.4584 36.3297 49.9229C35.3183 50.3873 34.4192 51.0649 33.694 51.9091C32.9688 52.7533 32.4345 53.7442 32.1278 54.814C31.8211 55.8839 31.7492 57.0074 31.917 58.1076H28.5179C27.6399 58.1076 26.7978 57.7588 26.1769 57.1379C25.556 56.517 25.2072 55.6749 25.2072 54.7968V51.4861H27.4143C27.6604 51.4861 27.8993 51.4038 28.0933 51.2525C28.2872 51.1011 28.425 50.8893 28.4848 50.6506L29.5884 46.2363C29.6292 46.0736 29.6323 45.9037 29.5976 45.7396C29.5628 45.5755 29.4911 45.4214 29.3879 45.2892C29.2847 45.1569 29.1527 45.05 29.002 44.9764C28.8512 44.9028 28.6857 44.8645 28.5179 44.8645H26.1883C26.609 44.4422 27.1365 44.142 27.7145 43.996L31.3729 43.0812C32.0943 42.899 32.7717 42.5736 33.3647 42.1243C33.9578 41.6749 34.4544 41.1109 34.8249 40.4657L40.1773 31.0995C40.8544 29.9182 41.831 28.9364 43.0087 28.253C44.1863 27.5697 45.5233 27.2089 46.8849 27.2072H65.3302C66.6918 27.2089 68.0288 27.5697 69.2065 28.253C70.3841 28.9364 71.3608 29.9182 72.0378 31.0995L77.2843 40.2814C77.689 40.9935 78.2477 41.6061 78.9196 42.0745C79.5916 42.5428 80.3597 42.8551 81.1678 42.9884L84.9675 43.6219C86.0785 43.8057 87.1361 44.2298 88.0663 44.8645H85.9044C85.6117 44.8645 85.331 44.9808 85.124 45.1878C84.9171 45.3947 84.8008 45.6754 84.8008 45.9681C84.8001 46.693 84.9423 47.4108 85.2194 48.0806C85.4964 48.7504 85.9028 49.359 86.4154 49.8715C86.9279 50.384 87.5365 50.7905 88.2063 51.0675C88.8761 51.3446 89.5939 51.4868 90.3187 51.4861H91.4223V54.7968C91.4223 55.6749 91.0735 56.517 90.4526 57.1379C89.8317 57.7588 88.9896 58.1076 88.1116 58.1076Z" fill="black"/>
<path d="M73.1668 35.4675C73.0161 35.2165 72.7718 35.0357 72.4878 34.9648C72.2037 34.8939 71.9031 34.9388 71.6522 35.0895C71.4012 35.2403 71.2204 35.4845 71.1495 35.7686C71.0786 36.0526 71.1234 36.3532 71.2742 36.6042L72.9196 39.3466H59.4184V30.5179H65.7474C66.319 30.5195 66.8805 30.6683 67.3778 30.9499C67.8752 31.2315 68.2916 31.6365 68.5869 32.1259L69.2866 33.2934C69.4374 33.5444 69.6816 33.7253 69.9657 33.7961C70.2497 33.867 70.5503 33.8222 70.8013 33.6714C71.0523 33.5207 71.2331 33.2764 71.304 32.9924C71.3749 32.7083 71.33 32.4077 71.1793 32.1568L70.4785 30.9892C69.9864 30.174 69.2925 29.4993 68.4639 29.0301C67.6352 28.561 66.6997 28.3133 65.7474 28.3108H58.3148C58.0221 28.3108 57.7414 28.427 57.5344 28.634C57.3275 28.841 57.2112 29.1217 57.2112 29.4143V40.4502C57.2112 40.7429 57.3275 41.0236 57.5344 41.2306C57.7414 41.4375 58.0221 41.5538 58.3148 41.5538H74.8686C75.0639 41.5538 75.2557 41.5019 75.4244 41.4034C75.5931 41.305 75.7327 41.1636 75.8289 40.9936C75.9251 40.8236 75.9744 40.6311 75.9718 40.4357C75.9693 40.2404 75.9149 40.0493 75.8143 39.8819L73.1668 35.4675Z" fill="black"/>
<path d="M53.9003 28.3108H46.4677C45.5154 28.3133 44.5799 28.561 43.7512 29.0301C42.9226 29.4993 42.2287 30.174 41.7366 30.9892L36.4008 39.8819C36.3002 40.0493 36.2458 40.2404 36.2433 40.4357C36.2407 40.6311 36.29 40.8236 36.3862 40.9936C36.4824 41.1636 36.6219 41.305 36.7907 41.4034C36.9594 41.5019 37.1512 41.5538 37.3465 41.5538H53.9003C54.193 41.5538 54.4737 41.4375 54.6807 41.2306C54.8876 41.0236 55.0039 40.7429 55.0039 40.4502V29.4143C55.0039 29.1217 54.8876 28.841 54.6807 28.634C54.4737 28.427 54.193 28.3108 53.9003 28.3108ZM52.7967 39.3466H39.2955L43.6282 32.1259C43.9235 31.6365 44.3399 31.2315 44.8373 30.9499C45.3346 30.6683 45.8961 30.5195 46.4677 30.5179H52.7967V39.3466Z" fill="black"/>
<path d="M60.5219 42.6574H58.3148C58.0221 42.6574 57.7414 42.7737 57.5344 42.9806C57.3275 43.1876 57.2112 43.4683 57.2112 43.761C57.2112 44.0537 57.3275 44.3344 57.5344 44.5413C57.7414 44.7483 58.0221 44.8646 58.3148 44.8646H60.5219C60.8146 44.8646 61.0953 44.7483 61.3023 44.5413C61.5093 44.3344 61.6255 44.0537 61.6255 43.761C61.6255 43.4683 61.5093 43.1876 61.3023 42.9806C61.0953 42.7737 60.8146 42.6574 60.5219 42.6574Z" fill="black"/>
<path d="M39.5537 42.6574H37.3465C37.0538 42.6574 36.7731 42.7737 36.5662 42.9806C36.3592 43.1876 36.2429 43.4683 36.2429 43.761C36.2429 44.0537 36.3592 44.3344 36.5662 44.5413C36.7731 44.7483 37.0538 44.8646 37.3465 44.8646H39.5537C39.8464 44.8646 40.1271 44.7483 40.334 44.5413C40.541 44.3344 40.6573 44.0537 40.6573 43.761C40.6573 43.4683 40.541 43.1876 40.334 42.9806C40.1271 42.7737 39.8464 42.6574 39.5537 42.6574Z" fill="black"/>
<path d="M77.0757 53.6932C76.4208 53.6932 75.7807 53.8874 75.2363 54.2511C74.6918 54.6149 74.2675 55.132 74.0169 55.737C73.7663 56.3419 73.7008 57.0076 73.8285 57.6498C73.9563 58.2921 74.2716 58.882 74.7346 59.345C75.1976 59.808 75.7875 60.1233 76.4298 60.2511C77.072 60.3788 77.7377 60.3133 78.3426 60.0627C78.9476 59.8121 79.4647 59.3877 79.8284 58.8433C80.1922 58.2988 80.3864 57.6587 80.3864 57.0039C80.3864 56.1259 80.0376 55.2838 79.4167 54.6629C78.7958 54.042 77.9537 53.6932 77.0757 53.6932ZM77.0757 58.1075C76.8574 58.1075 76.644 58.0428 76.4625 57.9215C76.281 57.8003 76.1396 57.6279 76.0561 57.4263C75.9725 57.2246 75.9507 57.0027 75.9933 56.7886C76.0359 56.5746 76.141 56.3779 76.2953 56.2236C76.4496 56.0692 76.6463 55.9641 76.8604 55.9216C77.0744 55.879 77.2963 55.9008 77.498 55.9844C77.6996 56.0679 77.872 56.2093 77.9933 56.3908C78.1145 56.5723 78.1792 56.7857 78.1792 57.0039C78.1792 57.2966 78.063 57.5773 77.856 57.7843C77.649 57.9913 77.3683 58.1075 77.0757 58.1075Z" fill="black"/>
<path d="M39.5537 53.6932C38.8989 53.6932 38.2588 53.8874 37.7143 54.2511C37.1699 54.6149 36.7455 55.132 36.4949 55.737C36.2444 56.3419 36.1788 57.0076 36.3065 57.6498C36.4343 58.2921 36.7496 58.882 37.2126 59.345C37.6756 59.808 38.2656 60.1233 38.9078 60.2511C39.55 60.3788 40.2157 60.3133 40.8207 60.0627C41.4256 59.8121 41.9427 59.3877 42.3065 58.8433C42.6703 58.2988 42.8644 57.6587 42.8644 57.0039C42.8644 56.1259 42.5156 55.2838 41.8947 54.6629C41.2739 54.042 40.4317 53.6932 39.5537 53.6932ZM39.5537 58.1075C39.3354 58.1075 39.122 58.0428 38.9406 57.9215C38.7591 57.8003 38.6176 57.6279 38.5341 57.4263C38.4506 57.2246 38.4287 57.0027 38.4713 56.7886C38.5139 56.5746 38.619 56.3779 38.7733 56.2236C38.9277 56.0692 39.1243 55.9641 39.3384 55.9216C39.5525 55.879 39.7743 55.9008 39.976 55.9844C40.1777 56.0679 40.35 56.2093 40.4713 56.3908C40.5925 56.5723 40.6573 56.7857 40.6573 57.0039C40.6573 57.2966 40.541 57.5773 40.334 57.7843C40.1271 57.9913 39.8464 58.1075 39.5537 58.1075Z" fill="black"/>
</svg>
